src/next/cmd/sc_removehyperlink.svg

<svg height="16" width="16" xmlns="http://www.w3.org/2000/svg" xmlns:xlink="http://www.w3.org/1999/xlink"><radialGradient id="a" cx="-32" cy="9.6" gradientTransform="matrix(.45052565 .45052565 -2.2526284 2.2526284 49.226433 3.490457)" gradientUnits="userSpaceOnUse" r="5.6"><stop offset="0" stop-color="#a50606"/><stop offset="1" stop-color="#f20909"/></radialGradient><linearGradient id="b" gradientUnits="userSpaceOnUse" x1="64" x2="64" xlink:href="#g" y1="83.729706" y2="-62.169582"/><linearGradient id="c" gradientUnits="userSpaceOnUse" x1="64" x2="64" xlink:href="#e" y1="24" y2="-52"/><radialGradient id="d" cx="66" cy="-10.851176" gradientTransform="matrix(45.999965 -.000001 .00000122 14.035668 -2969.9975 154.88897)" gradientUnits="userSpaceOnUse" r="2" spreadMethod="reflect" xlink:href="#f"/><linearGradient id="e"><stop offset="0" stop-color="#c8c8c8"/><stop offset="1" stop-color="#e4e4e4"/></linearGradient><linearGradient id="f"><stop offset="0" stop-color="#fff"/><stop offset="1" stop-color="#fff" stop-opacity="0"/></linearGradient><linearGradient id="g"><stop offset="0"/><stop offset="1" stop-color="#7c7c7c"/></linearGradient><linearGradient id="h" gradientUnits="userSpaceOnUse" x1="70" x2="70" xlink:href="#g" y1="127" y2="32.952141"/><linearGradient id="i" gradientTransform="matrix(1.1428572 0 0 1 -7.142858 0)" gradientUnits="userSpaceOnUse" x1="64" x2="64" xlink:href="#e" y1="100" y2="28"/><radialGradient id="j" cx="64" cy="54.400002" gradientTransform="matrix(7.7142861 0 0 1.7500001 -427.71431 -43.200007)" gradientUnits="userSpaceOnUse" r="16" spreadMethod="reflect" xlink:href="#f"/><radialGradient id="k" cx="89.923889" cy="-1.414208" gradientUnits="userSpaceOnUse" r="113.80746"><stop offset="0" stop-color="#fff"/><stop offset=".5" stop-color="#fff"/><stop offset="1" stop-opacity="0"/></radialGradient><mask id="l" maskUnits="userSpaceOnUse"><path d="m9.923884-81.414215h159.999996v160h-159.999996z" fill="url(#k)" opacity=".6" transform="matrix(.70710683 .70710673 -.70710673 .70710683 0 0)"/></mask><clipPath id="m"><rect height="128" rx="4.83346" ry="4.62318" transform="matrix(-.70710683 -.70710673 -.70710673 .70710683 0 0)" width="128" x="-157.92387" y="-65.414215"/></clipPath><g clip-path="url(#m)" mask="url(#l)" transform="matrix(-.08838835 -.08838834 -.08838834 .08838835 19.740484 8.176776)"><rect height="101.82338" rx="13.805906" ry="22.627413" style="opacity:.85;fill:none;stroke-width:22.449945;stroke-linecap:round;stroke-linejoin:round;stroke:url(#h)" transform="matrix(1.1428572 0 0 1 -7.14286 0)" width="29.698492" x="50.388187" y="14.502516"/><rect fill="none" height="101.82338" rx="15.778178" ry="22.627407" stroke="url(#i)" stroke-linecap="round" stroke-linejoin="round" stroke-width="8" width="33.941132" x="50.443645" y="14.502516"/><rect fill="none" height="101.82338" rx="14.142138" ry="22.627424" stroke="url(#j)" stroke-linecap="round" stroke-linejoin="round" stroke-width="12.000001" width="33.941132" x="50.443645" y="14.502516"/><g id="n" transform="translate(0 4)"><rect height="88" rx="2" style="opacity:.85;fill:none;stroke-width:16.000002;stroke-linecap:round;stroke-linejoin:round;stroke:url(#b)" width="4" x="64" y="-56"/><rect fill="url(#c)" height="88" rx="2" width="4" x="64" y="-56"/><rect fill="url(#d)" height="88" rx="3.999996" ry="3.999997" width="7.999993" x="62.000004" y="-57.53912"/></g><use height="128" transform="matrix(-1 0 0 -1 132 128)" width="128" xlink:href="#n"/></g><g stroke-width=".125"><path d="m10.185547 7.9589844a1.083165 1.083165 0 0 0 -.7500001.3164062l-1.1601563 1.1601563a1.083165 1.083165 0 0 0 0 1.5312501l1.0214844 1.021484 2.685547-2.6953122-1.015625-1.0175782a1.083165 1.083165 0 0 0 -.78125-.3164062z" fill="#fff" fill-opacity=".870588"/><path d="m14.841389 9.0418591-2.32046 2.3204589-2.320459-2.3204589-1.1586111 1.1586109 2.3204591 2.320459-2.3204591 2.32046 1.1586111 1.158611 2.320459-2.320459 2.32046 2.320459 1.158611-1.158611-2.320459-2.32046 2.320459-2.320459z" fill="url(#a)"/></g></svg>

<?xml version="1.0" encoding="UTF-8" standalone="no"?>
<svg
   xmlns:dc="http://purl.org/dc/elements/1.1/"
   xmlns:cc="http://creativecommons.org/ns#"
   xmlns:rdf="http://www.w3.org/1999/02/22-rdf-syntax-ns#"
   xmlns:svg="http://www.w3.org/2000/svg"
   xmlns="http://www.w3.org/2000/svg"
   xmlns:xlink="http://www.w3.org/1999/xlink"
   xmlns:sodipodi="http://sodipodi.sourceforge.net/DTD/sodipodi-0.dtd"
   xmlns:inkscape="http://www.inkscape.org/namespaces/inkscape"
   height="16"
   width="16"
   version="1.1"
   id="svg53"
   sodipodi:docname="sc_removehyperlink.svg"
   inkscape:version="0.92.3 (2405546, 2018-03-11)"
   inkscape:export-filename="/home/rizmut/Dokumen/Rizmut/Github/libreoffice-style-karasa-jaga/build/next/cmd/sc_removehyperlink.png"
   inkscape:export-xdpi="96"
   inkscape:export-ydpi="96">
  <metadata
     id="metadata59">
    <rdf:RDF>
      <cc:Work
         rdf:about="">
        <dc:format>image/svg+xml</dc:format>
        <dc:type
           rdf:resource="http://purl.org/dc/dcmitype/StillImage" />
        <dc:title></dc:title>
      </cc:Work>
    </rdf:RDF>
  </metadata>
  <defs
     id="defs57">
    <radialGradient
       id="a-3"
       cx="-32"
       cy="9.6000004"
       gradientTransform="matrix(0.45052565,0.45052565,-2.2526284,2.2526284,49.226433,3.4904566)"
       gradientUnits="userSpaceOnUse"
       r="5.5999999">
      <stop
         offset="0"
         stop-color="#a50606"
         id="stop2" />
      <stop
         offset="1"
         stop-color="#f20909"
         id="stop4" />
    </radialGradient>
  </defs>
  <sodipodi:namedview
     pagecolor="#ffffff"
     bordercolor="#666666"
     borderopacity="1"
     objecttolerance="10"
     gridtolerance="10"
     guidetolerance="10"
     inkscape:pageopacity="0"
     inkscape:pageshadow="2"
     inkscape:window-width="1366"
     inkscape:window-height="714"
     id="namedview55"
     showgrid="true"
     inkscape:zoom="14.75"
     inkscape:cx="11.247007"
     inkscape:cy="3.9247533"
     inkscape:window-x="0"
     inkscape:window-y="28"
     inkscape:window-maximized="1"
     inkscape:current-layer="svg53">
    <inkscape:grid
       type="xygrid"
       id="grid878" />
  </sodipodi:namedview>
  <linearGradient
     id="a"
     gradientUnits="userSpaceOnUse"
     x1="64"
     x2="64"
     xlink:href="#f"
     y1="83.729706"
     y2="-62.169582" />
  <linearGradient
     id="b"
     gradientUnits="userSpaceOnUse"
     x1="64"
     x2="64"
     xlink:href="#d"
     y1="24"
     y2="-52" />
  <radialGradient
     id="c"
     cx="66"
     cy="-10.851176"
     gradientTransform="matrix(45.999965 -.000001 .00000122 14.035668 -2969.9975 154.88897)"
     gradientUnits="userSpaceOnUse"
     r="2"
     spreadMethod="reflect"
     xlink:href="#e" />
  <linearGradient
     id="d">
    <stop
       offset="0"
       stop-color="#c8c8c8"
       id="stop5" />
    <stop
       offset="1"
       stop-color="#e4e4e4"
       id="stop7" />
  </linearGradient>
  <linearGradient
     id="e">
    <stop
       offset="0"
       stop-color="#fff"
       id="stop10" />
    <stop
       offset="1"
       stop-color="#fff"
       stop-opacity="0"
       id="stop12" />
  </linearGradient>
  <linearGradient
     id="f">
    <stop
       offset="0"
       id="stop15" />
    <stop
       offset="1"
       stop-color="#7c7c7c"
       id="stop17" />
  </linearGradient>
  <linearGradient
     id="g"
     gradientUnits="userSpaceOnUse"
     x1="70"
     x2="70"
     xlink:href="#f"
     y1="127"
     y2="32.952141" />
  <linearGradient
     id="h"
     gradientTransform="matrix(1.1428572 0 0 1 -7.142858 0)"
     gradientUnits="userSpaceOnUse"
     x1="64"
     x2="64"
     xlink:href="#d"
     y1="100"
     y2="28" />
  <radialGradient
     id="i"
     cx="64"
     cy="54.400002"
     gradientTransform="matrix(7.7142861 0 0 1.7500001 -427.71431 -43.200007)"
     gradientUnits="userSpaceOnUse"
     r="16"
     spreadMethod="reflect"
     xlink:href="#e" />
  <radialGradient
     id="j"
     cx="89.923889"
     cy="-1.414208"
     gradientUnits="userSpaceOnUse"
     r="113.80746">
    <stop
       offset="0"
       stop-color="#fff"
       id="stop23" />
    <stop
       offset=".5"
       stop-color="#fff"
       id="stop25" />
    <stop
       offset="1"
       stop-opacity="0"
       id="stop27" />
  </radialGradient>
  <mask
     id="k"
     maskUnits="userSpaceOnUse">
    <path
       d="m9.923884-81.414215h159.999996v160h-159.999996z"
       fill="url(#j)"
       opacity=".6"
       transform="matrix(.70710683 .70710673 -.70710673 .70710683 0 0)"
       id="path30" />
  </mask>
  <clipPath
     id="l">
    <rect
       height="128"
       rx="4.83346"
       ry="4.62318"
       transform="matrix(-.70710683 -.70710673 -.70710673 .70710683 0 0)"
       width="128"
       x="-157.92387"
       y="-65.414215"
       id="rect33" />
  </clipPath>
  <g
     clip-path="url(#l)"
     mask="url(#k)"
     transform="matrix(-.08838835 -.08838834 -.08838834 .08838835 19.740484 8.176776)"
     id="g51">
    <rect
       height="101.82338"
       rx="13.805906"
       ry="22.627413"
       style="opacity:.85;fill:none;stroke-width:22.449945;stroke-linecap:round;stroke-linejoin:round;stroke:url(#g)"
       transform="matrix(1.1428572 0 0 1 -7.14286 0)"
       width="29.698492"
       x="50.388187"
       y="14.502516"
       id="rect36" />
    <rect
       fill="none"
       height="101.82338"
       rx="15.778178"
       ry="22.627407"
       stroke="url(#h)"
       stroke-linecap="round"
       stroke-linejoin="round"
       stroke-width="8"
       width="33.941132"
       x="50.443645"
       y="14.502516"
       id="rect38" />
    <rect
       fill="none"
       height="101.82338"
       rx="14.142138"
       ry="22.627424"
       stroke="url(#i)"
       stroke-linecap="round"
       stroke-linejoin="round"
       stroke-width="12.000001"
       width="33.941132"
       x="50.443645"
       y="14.502516"
       id="rect40" />
    <g
       id="m"
       transform="translate(0 4)">
      <rect
         height="88"
         rx="2"
         style="opacity:.85;fill:none;stroke-width:16.000002;stroke-linecap:round;stroke-linejoin:round;stroke:url(#a)"
         width="4"
         x="64"
         y="-56"
         id="rect42" />
      <rect
         fill="url(#b)"
         height="88"
         rx="2"
         width="4"
         x="64"
         y="-56"
         id="rect44" />
      <rect
         fill="url(#c)"
         height="88"
         rx="3.999996"
         ry="3.999997"
         width="7.999993"
         x="62.000004"
         y="-57.53912"
         id="rect46" />
    </g>
    <use
       height="128"
       transform="matrix(-1 0 0 -1 132 128)"
       width="128"
       xlink:href="#m"
       id="use49" />
  </g>
  <path
     style="fill:#ffffff;stroke-width:0.125;fill-opacity:0.87058824"
     d="M 10.185547 7.9589844 A 1.083165 1.083165 0 0 0 9.4355469 8.2753906 L 8.2753906 9.4355469 A 1.083165 1.083165 0 0 0 8.2753906 10.966797 L 9.296875 11.988281 L 11.982422 9.2929688 L 10.966797 8.2753906 A 1.083165 1.083165 0 0 0 10.185547 7.9589844 z "
     id="path880" />
  <path
     inkscape:connector-curvature="0"
     style="fill:url(#a-3);stroke-width:0.125"
     d="M 14.841389,9.0418591 12.520929,11.362318 10.20047,9.0418591 9.0418589,10.20047 11.362318,12.520929 9.0418589,14.841389 10.20047,16 12.520929,13.679541 14.841389,16 16,14.841389 13.679541,12.520929 16,10.20047 Z"
     id="path64" />
</svg>
